!!!COM: Bach, Johann Sebastian
!!!OTL: 19. Ich hab' mein' Sach' Gott heimgestellt
!!!ONM: No. 19
!!!OCL: Erk
!!!SCA: BWV 351
!!!YOE: Riemenschneider, Albert
!!!OPR: 371 Harmonized Chorales and 69 Chorale Melodies with Figured Bass
!!!OPT: Bach Chorale Harmonizations
**harm	**root	**kern	**kern	**kern	**kern
!	!	!bass	!tenor	!alto	!sprno
*Iorgan	*Iorgan	*Iorgan	*Iorgan	*Iorgan	*Iorgan
*k[b-e-a-d-g-c-]	*k[b-e-a-d-g-c-]	*k[b-e-a-d-g-c-]	*k[b-e-a-d-g-c-]	*k[b-e-a-d-g-c-]	*k[b-e-a-d-g-c-]
*a-:	*a-:	*a-:	*a-:	*a-:	*a-:
*met(c)	*met(c)	*met(c)	*met(c)	*met(c)	*met(c)
*M4/4	*M4/4	*M4/4	*M4/4	*M4/4	*M4/4
*MM60	*MM60	*MM60	*MM60	*MM60	*MM60
i	4GG	4A-	4c-	4e-	4a-
=1	=1	=1	=1	=1	=1
i	4GG	8A-	8c-	4e-	4a-
.	.	8G-	8B-	.	.
vii/V	4CC#	4F-	4A-	8e-	4a-
.	.	.	.	8d	.
V	4DD	8E-	4B-	4e-	4g
.	.	8D-	.	.	.
ib	4GG	8C-	4e-	8a-	4cc-
.	.	8AA-	.	8g-	.
=2	=2	=2	=2	=2	=2
iib	4AA	4D-	4d-	8f-	4b-
.	.	.	.	8e-	.
viioD7/V	4CC#	4D	8c-	4f	4a-
.	.	.	8B-	.	.
V;	4DD;	4E-;	4B-;	4e-;	4g;
V	4DD	8E-	4B-	4e-	4g
.	.	[8F-	.	.	.
=3	=3	=3	=3	=3	=3
V7	4DD	8F-]	4B-	4d-	4g
.	.	[8E-	.	.	.
V	4DD	8E-]	4B-	4e-	4g
.	.	[8D-	.	.	.
Ib	4GG	8D-]	4A-	4e-	4a-
.	.	8C	.	.	.
IV	4CC	8D-	4A-	4d-	4f
.	.	8C-	.	.	.
=4	=4	=4	=4	=4	=4
viioD7b	4FF#	4BB-	8B-	8d-	4g
.	.	.	8d-	8f-	.
V7	4DD	4E-	8d-	4e-	4g
.	.	.	16c-	.	.
.	.	.	16B-	.	.
I;	4GG;	4AA-;	4c-;	4e-;	4a-;
-VII	4FF	4G-	4d-	4g-	4b-
=5	=5	=5	=5	=5	=5
!!linebreak: 2
-VII	4FF	8G-	4d-	4g-	4b-
.	.	8A-	.	.	.
IVb	4CC	8G-	4d-	4a-	4dd-
.	.	8F	.	.	.
-VII	4FF	8G-	4d-	4g-	4b-
.	.	[8F-	.	.	.
IIIb	4BB-	8F-]	4c-	4g-	4g-
.	.	8E-	.	.	.
=6	=6	=6	=6	=6	=6
VI	4EE-	8F-	4c-	8f-	4a-
.	.	8F	.	8e-	.
-VII	8FF	8G-	8B-	8d-	4b-
viioD7	8FF#	8G	8d-	8f-	.
i;	4GG;	4A-;	4c-;	4e-;	4cc-;
i	4GG	4AA-	4e-	[4a-	4cc-
=7	=7	=7	=7	=7	=7
V	4DD	4E-	4.e-	8a-]	4b-
.	.	.	.	8g	.
ivb	4CC	4F-	.	8a-	4a-
.	.	.	8d-	8A-	.
V;	4DD;	4E-;	4B-;	4e-;	4g;
V	4DD	4E-	4B-	4e-	4g
=8	=8	=8	=8	=8	=8
viib	4FF#	8BB-	4B-	8d-	4g
.	.	8C-	.	8e-	.
viioD7c	4FF#	4D-	4B-	8f-	4g
.	.	.	.	8e-	.
ib	4GG	8C-	[4A-	4e-	4a-
.	.	8C	.	.	.
IV	8CC	8D-	16A-]	4f	4f
.	.	.	16B-	.	.
viioD7/V	8CC#	8D	8c-y	.	.
=9	=9	=9	=9	=9	=9
V	4DD	4E-	8B-	4e-	4g
.	.	.	8A-	.	.
V	4DD	4EE-	16B-	4e-	4g
.	.	.	16c-	.	.
.	.	.	8d-	.	.
I;	4GG;	4AA-;	8d-	4e-;	4a-;
.	.	.	8c;	.	.
==	==	==	==	==	==
*-	*-	*-	*-	*-	*-
!!!CDT: 1685/3//-1750/7/28
!!!OCY: Deutschland
!!!AGN: chorale
!!!AST: Baroque
!!!AIN: vox
!!!YOY: 1941
!!!PPP: New York; London
!!!PPR: G. Schirmer
!!!ENC: David Huron
!!!EED: David Huron
!!!YEN: United States of America
!!!YER: 1992
!!!YEC: Copyright 1992 David Huron
!!!YEM: Rights to all derivative electronic formats reserved.
!!!YER: March 20, 1996
!!!AMT: simple quadruple
!!!EEV: 1.1
!!chor2scor: -l 2 -s 0.6 -o %b.pmx
